src/parts/tops/Hijab.svg

<svg>
  <g
    id="Top"
    strokeWidth="1"
    fillRule="evenodd"
  >
    <defs>
      <rect
        id="Hijab-path1"
        x="0"
        y="0"
        width="264"
        height="280"
      />
      <path
        id="Hijab-path2"
        d="M66.0421575,77.0749852 C71.6795257,45.2058307 99.5129755,21 133,21 L133,21 L133,21 C170.555363,21 201,51.444637 201,89 L201,119.751022 C201.875211,129.554379 202.693946,136.422143 203.456205,140.354314 C204.833317,147.458254 209.150269,145.115419 209.150269,155.220201 C209.150269,165.324983 204.822005,168.720206 204.803237,177.705482 C204.784469,186.690758 220.200444,193.836185 220.200444,205.242606 C220.200444,216.649027 213.126079,270.475928 142.577598,270.475928 C127.507235,270.475928 114.670509,266.188589 104.06742,257.613911 C104.750275,264.103957 105.394468,271.565987 106,280 L59,280 C59.9324304,256.228591 51.7156549,242.936205 51.7156549,216.44564 C51.7156549,189.955074 65.3525844,151.427541 65,142 C65.019981,141.417741 65.0406721,140.728417 65.0620734,139.932027 C65.0208303,138.959828 65,137.982347 65,137 L65,89 L65,89 C65,85.0240875 65.3412247,81.1278723 65.9959868,77.3390417 C65.9973236,77.2261704 65.9986613,77.1131564 66,77 C66.0140661,77.0249783 66.0281186,77.0499734 66.0421575,77.0749852 Z M132.5,53 L132.5,53 C102.400481,53 78,77.4004811 78,107.5 L78,107.5 L78,130.5 C78,160.599519 102.400481,185 132.5,185 L133.5,185 C163.599519,185 188,160.599519 188,130.5 L188,107.5 C188,77.4004811 163.599519,53 133.5,53 L133.5,53 L132.5,53 Z"
      />
      <filter
        id="filter1"
        x="-0.8%"
        y="-2.0%"
        width="101.5%"
        height="108.0%"
        filterUnits="objectBoundingBox"
      >
        <feOffset
          dx="0"
          dy="2"
          in="SourceAlpha"
          result="shadowOffsetOuter1"
        />
        <feColorMatrix
          values="0 0 0 0 0   0 0 0 0 0   0 0 0 0 0  0 0 0 0.16 0"
          type="matrix"
          in="shadowOffsetOuter1"
          result="shadowMatrixOuter1"
        />
        <feMerge>
          <feMergeNode in="shadowMatrixOuter1" />
          <feMergeNode in="SourceGraphic" />
        </feMerge>
      </filter>
    </defs>
    <mask
      id="Hijab-mask1"
      fill="white"
    >
      <use href="#Hijab-path1" />
    </mask>
    <g id="Mask" />
    <g
      id="Top/Accesories/Hijab"
      mask="url('#Hijab-mask1')"
    >
      <g transform="translate(-1.000000, 0.000000)">
        <mask
          id="Hijab-mask2"
          fill="white"
        >
          <use href="#Hijab-path2" />
        </mask>
        <use
          class="CustomColor"
          stroke="none"
          fill="var(--avataaar-top-color)"
          fillRule="evenodd"
          href="#Hijab-path2"
        />
        <path
          id="Band"
          d="M72.0744416,104.959767 C71.3690172,101.246903 71,97.4161983 71,93.5 C71,59.5344879 98.7583455,32 133,32 C167.241654,32 195,59.5344879 195,93.5 C195,97.4161983 194.630983,101.246903 193.925558,104.959767 C192.341315,72.6827942 165.669927,47 133,47 C100.330073,47 73.6586845,72.6827942 72.0744428,104.959774 Z"
          stroke="none"
          opacity="0.5"
          fill="#FFFFFF"
          fillRule="evenodd"
          mask="url('#Hijab-mask2')"
        />
        <path
          id="Shadows"
          d="M187.929085,104.69543 C188.631457,108.187732 189,111.800827 189,115.5 L189,138.5 C189,168.599519 164.599519,193 134.5,193 L131.5,193 C101.400481,193 77,168.599519 77,138.5 L77,115.5 L77,115.5 C77,111.800827 77.3685433,108.187732 78.0709154,104.69543 C78.0238287,105.624341 78,106.559388 78,107.5 L78,107.5 L78,130.5 C78,160.599519 102.400481,185 132.5,185 L133.5,185 C163.599519,185 188,160.599519 188,130.5 L188,130.5 L188,107.5 C188,106.559388 187.976171,105.624341 187.929085,104.69543 Z M114.16682,206.995462 C120.651206,211.981028 135.663493,213.708321 152.404574,210.756416 C169.145655,207.804512 182.661822,201.046883 187.049987,194.144193 C187.118291,194.396526 187.175421,194.652296 187.221114,194.911435 C188.930607,204.606451 173.985409,215.345413 153.84008,218.897578 C133.694752,222.449742 115.977919,217.469978 114.268426,207.774963 C114.222732,207.515823 114.188938,207.255938 114.166824,206.995464 Z M126.034638,235.921439 C134.227056,241.574977 150.421729,241.843835 167.103682,235.772101 C183.785635,229.700366 196.018656,219.084674 198.660388,209.487828 C198.803116,209.80837 198.935124,210.134883 199.056117,210.46731 C203.582768,222.904181 190.979008,238.909268 170.904831,246.215671 C150.830654,253.522074 130.887742,249.363007 126.361091,236.926135 C126.240098,236.593709 126.131343,236.258733 126.034643,235.921442 Z"
          stroke="none"
          fill="#000000"
          fillRule="evenodd"
          opacity="0.16"
          mask="url('#Hijab-mask2')"
        />
      </g>
    </g>
  </g>
</svg>

<svg>
  <g id="Top">
    <defs>
      <path id="Hijab-path1" d="M0 0h264v280H0z"/>
      <path id="Hijab-path2" d="M66.042 77.075C71.68 45.205 99.513 21 133 21c37.555 0 68 30.445 68 68v30.751c.875 9.803 1.694 16.671 2.456 20.603 1.377 7.104 5.694 4.761 5.694 14.866s-4.328 13.5-4.347 22.485c-.019 8.986 15.397 16.131 15.397 27.538 0 11.406-7.074 65.233-77.622 65.233-15.07 0-27.907-4.287-38.51-12.862.682 6.49 1.326 13.952 1.932 22.386H59c.932-23.771-7.284-37.064-7.284-63.554 0-26.49 13.637-65.018 13.284-74.446.02-.582.04-1.272.062-2.068A69.174 69.174 0 0 1 65 137V89c0-3.976.341-7.872.996-11.661L66 77l.042.075ZM132.5 53C102.4 53 78 77.4 78 107.5v23c0 30.1 24.4 54.5 54.5 54.5h1c30.1 0 54.5-24.4 54.5-54.5v-23c0-30.1-24.4-54.5-54.5-54.5h-1Z"/>
      <filter id="filter1" width="101.5%" height="108%" x="-.8%" y="-2%" filterUnits="objectBoundingBox">
        <feOffset dy="2" in="SourceAlpha" result="shadowOffsetOuter1"/>
        <feColorMatrix in="shadowOffsetOuter1" result="shadowMatrixOuter1" values="0 0 0 0 0 0 0 0 0 0 0 0 0 0 0 0 0 0 0.16 0"/>
        <feMerge>
          <feMergeNode in="shadowMatrixOuter1"/>
          <feMergeNode in="SourceGraphic"/>
        </feMerge>
      </filter>
    </defs>
    <mask id="Hijab-mask1" fill="#fff">
      <use href="#Hijab-path1"/>
    </mask>
    <g id="Top/Accesories/Hijab" mask="url('#Hijab-mask1')">
      <g transform="translate(-1)">
        <mask id="Hijab-mask2" fill="#fff">
          <use href="#Hijab-path2"/>
        </mask>
        <use fill="var(--avataaar-top-color)" class="CustomColor" href="#Hijab-path2"/>
        <path id="Band" fill="#FFF" stroke="none" d="M72.074 104.96A61.351 61.351 0 0 1 71 93.5C71 59.534 98.758 32 133 32c34.242 0 62 27.534 62 61.5 0 3.916-.369 7.747-1.074 11.46C192.34 72.683 165.67 47 133 47s-59.341 25.683-60.926 57.96Z" mask="url('#Hijab-mask2')" opacity=".5"/>
        <path id="Shadows" fill="#000" stroke="none" d="M187.93 104.695A54.756 54.756 0 0 1 189 115.5v23c0 30.1-24.4 54.5-54.5 54.5h-3c-30.1 0-54.5-24.4-54.5-54.5v-23c0-3.7.369-7.312 1.07-10.805-.046.93-.07 1.864-.07 2.805v23c0 30.1 24.4 54.5 54.5 54.5h1c30.1 0 54.5-24.4 54.5-54.5v-23c0-.94-.024-1.876-.07-2.805Zm-73.763 102.3c6.484 4.986 21.496 6.713 38.238 3.761 16.74-2.951 30.257-9.71 34.645-16.612.068.253.125.508.171.767 1.71 9.695-13.236 20.434-33.38 23.987-20.146 3.552-37.863-1.428-39.573-11.123a8.75 8.75 0 0 1-.101-.78Zm11.868 28.926c8.192 5.654 24.387 5.923 41.069-.149 16.682-6.072 28.915-16.687 31.556-26.284.143.32.275.647.396.98 4.527 12.436-8.077 28.441-28.151 35.748-20.074 7.306-40.017 3.147-44.544-9.29-.12-.332-.23-.667-.326-1.005Z" mask="url('#Hijab-mask2')" opacity=".16"/>
      </g>
    </g>
  </g>
</svg>
